Suru++-Ubuntu/apps/symbolic/foobillardplus-symbolic.svg

<svg width="16" height="15.996" version="1.1" xmlns="http://www.w3.org/2000/svg">
 <path d="m5.2962646 15.971726c-2.792579-0.427162-4.7915749-2.70633-4.7962539-5.468409-0.0027-1.5732658 0.50745794-2.8041067 1.6210539-3.9112815 0.788092-0.7835717 1.531094-1.211452 2.562459-1.4756787 0.793493-0.2033386 2.2865503-0.1466457 3.0329049 0.1148976 1.5423345 0.540548 2.8021115 1.7560063 3.3923035 3.2729196l0.253833 0.6524221 0.342425-0.3424252c0.624329-0.6243402 0.768688-1.0158236 0.768688-2.0845606 0-0.8537953-0.02683-0.998778-0.277795-1.5110173-0.553765-1.1295118-1.807789-2.0461606-3.0253115-2.2114016-1.3951332-0.1893543-2.6821229 0.3963969-3.2549559 1.4813103l-0.186028 0.3522519-0.0042-0.4386519c-0.0057-0.6125859 0.305045-1.5510425 0.732937-2.2124977 2.183293-3.375118 7.2470734-2.7326361 8.5329404 1.0826079 0.294615 0.8741669 0.295937 2.0923086 0.0032 2.9481448-0.502447 1.4688-1.561161 2.5353449-2.988102 3.0102047l-0.582306 0.1938898 0.03802 0.8247298c0.07396 1.604221-0.467486 2.977852-1.6279638 4.130079-0.6999118 0.694942-1.4577108 1.156649-2.3083917 1.406513-0.5372523 0.157607-1.7517199 0.259276-2.2294569 0.185953zm1.5099138-4.232201c1.631641-0.798274 2.0322747-2.9354077 0.81103-4.3263116-0.9873374-1.1245228-2.8855898-1.1578582-3.9736398-0.069921-0.905783 0.9057637-1.066345 2.3460283-0.381857 3.4253476 0.75081 1.183937 2.262549 1.597946 3.5444668 0.970771zm-1.7580018-0.872013c-0.26725-0.04309-0.620648-0.366614-0.652097-0.596485-0.04331-0.3167238 0.01625-0.4807176 0.286791-0.7888624l0.283804-0.3231496-0.314456-0.058961c-0.739752-0.1387086-0.980206-0.8642267-0.437745-1.3206425 0.575172-0.4840063 1.472791-0.5554015 1.842754-0.1466456 0.146683 0.1621417 0.157833 0.2445354 0.07317 0.5411527-0.05492 0.192378-0.129487 0.4191874-0.165733 0.5036976-0.05185 0.1209449 0.0079 0.1674331 0.280895 0.2188347 0.4483653 0.084284 0.7978468 0.4330205 0.7978468 0.7964976 0 0.3167245-0.3607559 0.7997855-0.7431528 0.9953765-0.291591 0.149291-0.899997 0.23622-1.252067 0.179149zm1.066998-0.658356c0.338911-0.306519 0.152315-0.693656-0.334563-0.693656-0.483122 0-0.797549 0.4517672-0.512689 0.736629 0.163691 0.163654 0.64594 0.139087 0.847245-0.04309zm-0.6017-1.7513568c0.206778-0.2067401 0.135685-0.5385826-0.129752-0.6051779-0.348207-0.087307-0.701332 0.099024-0.701332 0.3700157 0 0.1224567 0.02835 0.2505827 0.06297 0.2853544 0.105637 0.1058267 0.647629 0.070299 0.768109-0.050268zm7.7296024-5.1683526c0.180245-0.1099843 0.341253-0.3148347 0.409137-0.520441 0.359131-1.0882015-1.52942-2.375811-2.641304-1.8008315-0.798799 0.41306457-0.740069 1.3006488 0.132133 1.9965732 0.650657 0.5191559 1.552448 0.6585827 2.100053 0.3246615zm-1.163751-0.9950363c-0.63366-0.5617889-0.667-0.6104692-0.513256-0.7496314 0.15205-0.1375748 0.215773-0.1050709 0.846157 0.4293165 0.650955 0.5520378 0.674528 0.5860913 0.522225 0.7543937-0.08772 0.096756-0.16354 0.1742362-0.168492 0.1715905-0.0049-0.0028-0.313927-0.2751496-0.686649-0.6055559z" style="fill:#808080"/>
</svg>

<svg xmlns="http://www.w3.org/2000/svg" width="16" height="15.996" version="1.1">
 <path d="M 5.2962646,15.971726 C 2.5036856,15.544564 0.50468966,13.265396 0.50001066,10.503317 0.49731066,8.9300512 1.0074686,7.6992103 2.1210646,6.5920355 2.9091566,5.8084638 3.6521586,5.3805835 4.6835236,5.1163568 5.4770166,4.9130182 6.9700739,4.9697111 7.7164285,5.2312544 9.258763,5.7718024 10.51854,6.9872607 11.108732,8.504174 l 0.253833,0.6524221 0.342425,-0.3424252 c 0.624329,-0.6243402 0.768688,-1.0158236 0.768688,-2.0845606 0,-0.8537953 -0.02683,-0.998778 -0.277795,-1.5110173 C 11.642118,4.0890812 10.388094,3.1724324 9.1705715,3.0071914 7.7754383,2.8178371 6.4884486,3.4035883 5.9156156,4.4885017 l -0.186028,0.3522519 -0.0042,-0.4386519 c -0.0057,-0.6125859 0.305045,-1.5510425 0.732937,-2.2124977 2.183293,-3.375118 7.2470734,-2.73263612 8.5329404,1.0826079 0.294615,0.8741669 0.295937,2.0923086 0.0032,2.9481448 -0.502447,1.4688 -1.561161,2.5353449 -2.988102,3.0102047 l -0.582306,0.1938898 0.03802,0.8247298 c 0.07396,1.604221 -0.467486,2.977852 -1.6279638,4.130079 -0.6999118,0.694942 -1.4577108,1.156649 -2.3083917,1.406513 -0.5372523,0.157607 -1.7517199,0.259276 -2.2294569,0.185953 z M 6.8061784,11.739525 C 8.4378194,10.941251 8.8384531,8.8041173 7.6172084,7.4132134 6.629871,6.2886906 4.7316186,6.2553552 3.6435686,7.3432924 2.7377856,8.2490561 2.5772236,9.6893207 3.2617116,10.76864 c 0.75081,1.183937 2.262549,1.597946 3.5444668,0.970771 z M 5.0481766,10.867512 c -0.26725,-0.04309 -0.620648,-0.366614 -0.652097,-0.596485 -0.04331,-0.3167238 0.01625,-0.4807176 0.286791,-0.7888624 L 4.9666746,9.159015 4.6522186,9.100054 C 3.9124666,8.9613454 3.6720126,8.2358273 4.2144736,7.7794115 4.7896456,7.2954052 5.6872646,7.22401 6.0572276,7.6327659 c 0.146683,0.1621417 0.157833,0.2445354 0.07317,0.5411527 -0.05492,0.192378 -0.129487,0.4191874 -0.165733,0.5036976 -0.05185,0.1209449 0.0079,0.1674331 0.280895,0.2188347 0.4483653,0.084284 0.7978468,0.4330205 0.7978468,0.7964976 0,0.3167245 -0.3607559,0.7997855 -0.7431528,0.9953765 -0.291591,0.149291 -0.899997,0.23622 -1.252067,0.179149 z m 1.066998,-0.658356 C 6.4540856,9.902637 6.2674896,9.5155 5.7806116,9.5155 c -0.483122,0 -0.797549,0.4517672 -0.512689,0.736629 0.163691,0.163654 0.64594,0.139087 0.847245,-0.04309 z m -0.6017,-1.7513568 c 0.206778,-0.2067401 0.135685,-0.5385826 -0.129752,-0.6051779 -0.348207,-0.087307 -0.701332,0.099024 -0.701332,0.3700157 0,0.1224567 0.02835,0.2505827 0.06297,0.2853544 0.105637,0.1058267 0.647629,0.070299 0.768109,-0.050268 z M 13.243077,3.2894466 C 13.423322,3.1794623 13.58433,2.9746119 13.652214,2.7690056 14.011345,1.6808041 12.122794,0.39319464 11.01091,0.96817413 10.212111,1.3812387 10.270841,2.2688229 11.143043,2.9647473 11.7937,3.4839032 12.695491,3.62333 13.243096,3.2894088 Z M 12.079326,2.2944103 c -0.63366,-0.5617889 -0.667,-0.6104692 -0.513256,-0.7496314 0.15205,-0.1375748 0.215773,-0.1050709 0.846157,0.4293165 0.650955,0.5520378 0.674528,0.5860913 0.522225,0.7543937 -0.08772,0.096756 -0.16354,0.1742362 -0.168492,0.1715905 -0.0049,-0.0028 -0.313927,-0.2751496 -0.686649,-0.6055559 z" style="fill:#808080"/>
</svg>
